img/svg/stone-shape-1.svg

<svg width="36" height="36" viewBox="0 0 36 36" fill="none" xmlns="http://www.w3.org/2000/svg"><mask id="path-1-inside-1_615_12462" fill="#fff"><path d="M29 3v30H7V3h22zm1-1H6v32h24V2z"/></mask><path d="M29 3v30H7V3h22zm1-1H6v32h24V2z" fill="#A39D94"/><path d="M29 3h1V2h-1v1zm0 30v1h1v-1h-1zM7 33H6v1h1v-1zM7 3V2H6v1h1zm23-1h1V1h-1v1zM6 2V1H5v1h1zm0 32H5v1h1v-1zm24 0v1h1v-1h-1zM28 3v30h2V3h-2zm1 29H7v2h22v-2zM8 33V3H6v30h2zM7 4h22V2H7v2zm23-3H6v2h24V1zM5 2v32h2V2H5zm1 33h24v-2H6v2zm25-1V2h-2v32h2z" fill="#A39D94" mask="url(#path-1-inside-1_615_12462)"/><mask id="path-3-inside-2_615_12462" fill="#fff"><path d="M27 5v26H9V5h18zm1-1H8v28h20V4z"/></mask><path d="M27 5v26H9V5h18zm1-1H8v28h20V4z" fill="#A39D94"/><path d="M27 5h1V4h-1v1zm0 26v1h1v-1h-1zM9 31H8v1h1v-1zM9 5V4H8v1h1zm19-1h1V3h-1v1zM8 4V3H7v1h1zm0 28H7v1h1v-1zm20 0v1h1v-1h-1zM26 5v26h2V5h-2zm1 25H9v2h18v-2zm-17 1V5H8v26h2zM9 6h18V4H9v2zm19-3H8v2h20V3zM7 4v28h2V4H7zm1 29h20v-2H8v2zm21-1V4h-2v28h2z" fill="#A39D94" mask="url(#path-3-inside-2_615_12462)"/><mask id="path-5-inside-3_615_12462" fill="#fff"><path d="M25 7v22H11V7h14zm1-1H10v24h16V6z"/></mask><path d="M25 7v22H11V7h14zm1-1H10v24h16V6z" fill="#A39D94"/><path d="M25 7h1V6h-1v1zm0 22v1h1v-1h-1zm-14 0h-1v1h1v-1zm0-22V6h-1v1h1zm15-1h1V5h-1v1zM10 6V5H9v1h1zm0 24H9v1h1v-1zm16 0v1h1v-1h-1zM24 7v22h2V7h-2zm1 21H11v2h14v-2zm-13 1V7h-2v22h2zM11 8h14V6H11v2zm15-3H10v2h16V5zM9 6v24h2V6H9zm1 25h16v-2H10v2zm17-1V6h-2v24h2z" fill="#A39D94" mask="url(#path-5-inside-3_615_12462)"/><mask id="path-7-inside-4_615_12462" fill="#fff"><path d="M23 9v18H13V9h10zm1-1H12v20h12V8z"/></mask><path d="M23 9v18H13V9h10zm1-1H12v20h12V8z" fill="#A39D94"/><path d="M23 9h1V8h-1v1zm0 18v1h1v-1h-1zm-10 0h-1v1h1v-1zm0-18V8h-1v1h1zm11-1h1V7h-1v1zM12 8V7h-1v1h1zm0 20h-1v1h1v-1zm12 0v1h1v-1h-1zM22 9v18h2V9h-2zm1 17H13v2h10v-2zm-9 1V9h-2v18h2zm-1-17h10V8H13v2zm11-3H12v2h12V7zM11 8v20h2V8h-2zm1 21h12v-2H12v2zm13-1V8h-2v20h2z" fill="#A39D94" mask="url(#path-7-inside-4_615_12462)"/><path d="M23.5 27.5l5.917 5.917M12.48 27.5l-5.916 5.917M23.5 8.482l5.917-5.916M12.48 8.482L6.564 2.566" stroke="#A39D94" stroke-miterlimit="10"/></svg>

<svg width="36" height="36" viewBox="0 0 36 36" fill="none" xmlns="http://www.w3.org/2000/svg">
<mask id="path-1-inside-1_615_12462" fill="white">
<path d="M29 3V33H7V3H29ZM30 2H6V34H30V2Z"/>
</mask>
<path d="M29 3V33H7V3H29ZM30 2H6V34H30V2Z" fill="#A39D94"/>
<path d="M29 3H30V2H29V3ZM29 33V34H30V33H29ZM7 33H6V34H7V33ZM7 3V2H6V3H7ZM30 2H31V1H30V2ZM6 2V1H5V2H6ZM6 34H5V35H6V34ZM30 34V35H31V34H30ZM28 3V33H30V3H28ZM29 32H7V34H29V32ZM8 33V3H6V33H8ZM7 4H29V2H7V4ZM30 1H6V3H30V1ZM5 2V34H7V2H5ZM6 35H30V33H6V35ZM31 34V2H29V34H31Z" fill="#A39D94" mask="url(#path-1-inside-1_615_12462)"/>
<mask id="path-3-inside-2_615_12462" fill="white">
<path d="M27 5V31H9V5H27ZM28 4H8V32H28V4Z"/>
</mask>
<path d="M27 5V31H9V5H27ZM28 4H8V32H28V4Z" fill="#A39D94"/>
<path d="M27 5H28V4H27V5ZM27 31V32H28V31H27ZM9 31H8V32H9V31ZM9 5V4H8V5H9ZM28 4H29V3H28V4ZM8 4V3H7V4H8ZM8 32H7V33H8V32ZM28 32V33H29V32H28ZM26 5V31H28V5H26ZM27 30H9V32H27V30ZM10 31V5H8V31H10ZM9 6H27V4H9V6ZM28 3H8V5H28V3ZM7 4V32H9V4H7ZM8 33H28V31H8V33ZM29 32V4H27V32H29Z" fill="#A39D94" mask="url(#path-3-inside-2_615_12462)"/>
<mask id="path-5-inside-3_615_12462" fill="white">
<path d="M25 7V29H11V7H25ZM26 6H10V30H26V6Z"/>
</mask>
<path d="M25 7V29H11V7H25ZM26 6H10V30H26V6Z" fill="#A39D94"/>
<path d="M25 7H26V6H25V7ZM25 29V30H26V29H25ZM11 29H10V30H11V29ZM11 7V6H10V7H11ZM26 6H27V5H26V6ZM10 6V5H9V6H10ZM10 30H9V31H10V30ZM26 30V31H27V30H26ZM24 7V29H26V7H24ZM25 28H11V30H25V28ZM12 29V7H10V29H12ZM11 8H25V6H11V8ZM26 5H10V7H26V5ZM9 6V30H11V6H9ZM10 31H26V29H10V31ZM27 30V6H25V30H27Z" fill="#A39D94" mask="url(#path-5-inside-3_615_12462)"/>
<mask id="path-7-inside-4_615_12462" fill="white">
<path d="M23 9V27H13V9H23ZM24 8H12V28H24V8Z"/>
</mask>
<path d="M23 9V27H13V9H23ZM24 8H12V28H24V8Z" fill="#A39D94"/>
<path d="M23 9H24V8H23V9ZM23 27V28H24V27H23ZM13 27H12V28H13V27ZM13 9V8H12V9H13ZM24 8H25V7H24V8ZM12 8V7H11V8H12ZM12 28H11V29H12V28ZM24 28V29H25V28H24ZM22 9V27H24V9H22ZM23 26H13V28H23V26ZM14 27V9H12V27H14ZM13 10H23V8H13V10ZM24 7H12V9H24V7ZM11 8V28H13V8H11ZM12 29H24V27H12V29ZM25 28V8H23V28H25Z" fill="#A39D94" mask="url(#path-7-inside-4_615_12462)"/>
<path d="M23.5 27.5L29.417 33.417" stroke="#A39D94" stroke-miterlimit="10"/>
<path d="M12.4805 27.5L6.56445 33.417" stroke="#A39D94" stroke-miterlimit="10"/>
<path d="M23.5 8.48241L29.417 2.56641" stroke="#A39D94" stroke-miterlimit="10"/>
<path d="M12.4805 8.48241L6.56445 2.56641" stroke="#A39D94" stroke-miterlimit="10"/>
</svg>
